packages/flutter/assets/icons/arrow-right.svg

<?xml version="1.0" encoding="UTF-8"?>
<svg width="24px" height="24px" viewBox="0 0 24 24" version="1.1" xmlns="http://www.w3.org/2000/svg" xmlns:xlink="http://www.w3.org/1999/xlink">
    <title>arrow_right</title>
    <g id="arrow_right" stroke="none" stroke-width="1" fill="none" fill-rule="evenodd">
        <path d="M12.2843055,4.96574602 L12.3535534,5.02360147 L18.9763985,11.6464466 C19.1499649,11.820013 19.16925,12.0894374 19.034254,12.2843055 L18.9763985,12.3535534 L12.3535534,18.9763985 C12.1582912,19.1716607 11.8417088,19.1716607 11.6464466,18.9763985 C11.4728803,18.8028322 11.4535951,18.5334078 11.5885912,18.3385396 L11.6464466,18.2692918 L17.416,12.4991549 L5,12.5 C4.72385763,12.5 4.5,12.2761424 4.5,12 C4.5,11.7545401 4.67687516,11.5503916 4.91012437,11.5080557 L5,11.5 L17.416,11.4991549 L11.6464466,5.73070825 C11.4728803,5.5571419 11.4535951,5.28771749 11.5885912,5.09284935 L11.6464466,5.02360147 C11.820013,4.85003511 12.0894374,4.83074996 12.2843055,4.96574602 Z" id="Line" fill="#303846"></path>
    </g>
</svg>

<svg xmlns="http://www.w3.org/2000/svg" width="24" height="24" viewBox="0 0 24 24"><path fill-rule="evenodd" d="M12.284 4.966l.07.058 6.622 6.622a.5.5 0 0 1 .058.638l-.058.07-6.622 6.622a.5.5 0 0 1-.765-.637l.057-.07 5.77-5.77L5 12.5a.5.5 0 0 1-.09-.992L5 11.5h12.416l-5.77-5.77a.5.5 0 0 1-.057-.637l.057-.07a.5.5 0 0 1 .638-.057z"/></svg>
